collections/remixicon/map/rocket-2-line.svg

<svg viewBox="0 0 24 24" xmlns="http://www.w3.org/2000/svg" width="20" height="20"><path d="M15.502 20.005A6.522 6.522 0 0112 23.507a6.522 6.522 0 01-3.502-3.502h2.26c.326.488.747.912 1.242 1.243.495-.33.916-.755 1.242-1.243h2.26zM18 14.81l2 2.268v1.927H4v-1.927l2-2.268V9.005C6 5.52 8.504 2.558 12 1.46c3.496 1.098 6 4.061 6 7.545v5.804zm-.73 2.195L16 15.565v-6.56c0-2.318-1.57-4.43-4-5.421-2.43.99-4 3.103-4 5.42v6.561l-1.27 1.44h10.54zm-5.27-6a2 2 0 110-4 2 2 0 010 4z"/></svg>

<svg xmlns="http://www.w3.org/2000/svg" viewBox="0 0 24 24" width="20" height="20"><path fill="none" d="M0 0h24v24H0z"/><path d="M15.502 20A6.523 6.523 0 0112 23.502 6.523 6.523 0 018.498 20h2.26c.326.489.747.912 1.242 1.243.495-.33.916-.754 1.243-1.243h2.259zM18 14.805l2 2.268V19H4v-1.927l2-2.268V9c0-3.483 2.504-6.447 6-7.545C15.496 2.553 18 5.517 18 9v5.805zM17.27 17L16 15.56V9c0-2.318-1.57-4.43-4-5.42C9.57 4.57 8 6.681 8 9v6.56L6.73 17h10.54zM12 11a2 2 0 110-4 2 2 0 010 4z"/></svg>
